X: 4
T: the Black Rogue v.2
R: jig
S: From thesession.org 2019-1-8 (RJ handout)
Z: 2019 John Chambers <jc:trillian.mit.edu>
M: 6/8
L: 1/8
K: D
B |\
"A"cA=c "G"BGB | "A"cAA ABd | "A"cA=c "G"BGB | "D"AFD D2d |\
"A"cA=c "G"BGB | "A"cAA "D"A2d | "G"G3 BGB | "D"AFD D2 :|
|: e |\
"D"f3 "G"g3 | "D"afd "A"cBA | "D"f3 "G"g3 | "D"afd dfg |\
"D"agf "G"gfe | "D"fed e2d | "A"cA=c "G"BAG | "D"AFD D2 :|

%%sep 1 1 500

